!!!COM: katy-perry
!!!OTL: wide-awake
!!!RNB: hooktheoryid: vANmpWrnoyM
**kern	**text
*clefG2	*
*k[b-]	*
*M4/4	*
=1	=1
2d	Gm
4f	.
[4g	.
=2	=2
4g]	Bb
4b-	.
4a	.
[4a	.
=3	=3
2a]	F
4r	.
8f	.
8f	.
=4	=4
8f	C
8g	.
8g	.
4g	.
4.f	.
=5	=5
2d	Gm
4f	.
[4g	.
=6	=6
4g]	Bb
4b-	.
4a	.
[4a	.
=7	=7
2a	F
8a]	.
8f	.
16g	.
16a	.
[8g	.
=8	=8
2g]	C
4r	.
4f	.
=9	=9
2d	Gm
4f	.
[4g	.
=10	=10
4g]	Bb
4b-	.
4a	.
[4a	.
=11	=11
2a]	F
4r	.
8f	.
8f	.
=12	=12
8f	C
8g	.
8g	.
4g	.
4.f	.
=13	=13
2d	Gm
4f	.
[4g	.
=14	=14
4g]	Bb
4b-	.
4a	.
[4a	.
=15	=15
2a	F
8a]	.
8f	.
16g	.
16a	.
[8g	.
=16	=16
2g]	C
8r	.
8f	.
8f	.
8g	.
=17	=17
1r	.
*-	*-